src/pos-icons/application-import.svg

<svg height="24" viewBox="0 0 24 24" width="24" xmlns="http://www.w3.org/2000/svg"><path d="m1 12h9.76l-2.5-2.5 1.41-1.42 4.92 4.92-4.92 4.92-1.41-1.42 2.5-2.5h-9.76zm18-9c1.11 0 2 .9 2 2v14a2 2 0 0 1 -2 2h-14c-1.11 0-2-.9-2-2v-3h2v3h14v-12h-14v3h-2v-5a2 2 0 0 1 2-2z"/></svg>

<?xml version="1.0" encoding="UTF-8"?><!DOCTYPE svg PUBLIC "-//W3C//DTD SVG 1.1//EN" "http://www.w3.org/Graphics/SVG/1.1/DTD/svg11.dtd"><svg xmlns="http://www.w3.org/2000/svg" xmlns:xlink="http://www.w3.org/1999/xlink" version="1.1" id="mdi-application-import" width="24" height="24" viewBox="0 0 24 24"><path d="M1,12H10.76L8.26,9.5L9.67,8.08L14.59,13L9.67,17.92L8.26,16.5L10.76,14H1V12M19,3C20.11,3 21,3.9 21,5V19A2,2 0 0,1 19,21H5C3.89,21 3,20.1 3,19V16H5V19H19V7H5V10H3V5A2,2 0 0,1 5,3H19Z" /></svg>
